X:530
T:Reel 530
M:4/4
K:Gmaj
L:1/8
B|d2GB AGG2AB|G2ge dBB2|GB (3BAB d2ge|dBAc BGG:|c'|bgab c'2c'c'|bgab agga|bggc' c'2bc'|d'bac' bgg2|bgab a2ga|bgc'g afgd|bc'bg a2c'c'|d'bac' bgg|
